symbols/web/add_box/materialsymbolsrounded/add_box_wght500_20px.svg

<svg xmlns="http://www.w3.org/2000/svg" height="20" width="20"><path d="M10 14.208q.396 0 .677-.281t.281-.656v-2.313h2.313q.375 0 .656-.281t.281-.677q0-.396-.281-.677t-.656-.281h-2.313V6.729q0-.375-.281-.656T10 5.792q-.396 0-.677.281t-.281.656v2.313H6.729q-.375 0-.656.281T5.792 10q0 .396.281.677t.656.281h2.313v2.313q0 .375.281.656t.677.281Zm-5.688 3.459q-.833 0-1.406-.573t-.573-1.406V4.312q0-.833.573-1.406t1.406-.573h11.376q.833 0 1.406.573t.573 1.406v11.376q0 .833-.573 1.406t-1.406.573Zm0-1.979h11.376V4.312H4.312v11.376Zm0 0V4.312v11.376Z"/></svg>

<svg xmlns="http://www.w3.org/2000/svg" height="20" width="20"><path d="M10 14.208Q10.396 14.208 10.677 13.927Q10.958 13.646 10.958 13.271V10.958H13.271Q13.646 10.958 13.927 10.677Q14.208 10.396 14.208 10Q14.208 9.604 13.927 9.323Q13.646 9.042 13.271 9.042H10.958V6.729Q10.958 6.354 10.677 6.073Q10.396 5.792 10 5.792Q9.604 5.792 9.323 6.073Q9.042 6.354 9.042 6.729V9.042H6.729Q6.354 9.042 6.073 9.323Q5.792 9.604 5.792 10Q5.792 10.396 6.073 10.677Q6.354 10.958 6.729 10.958H9.042V13.271Q9.042 13.646 9.323 13.927Q9.604 14.208 10 14.208ZM4.312 17.667Q3.479 17.667 2.906 17.094Q2.333 16.521 2.333 15.688V4.312Q2.333 3.479 2.906 2.906Q3.479 2.333 4.312 2.333H15.688Q16.521 2.333 17.094 2.906Q17.667 3.479 17.667 4.312V15.688Q17.667 16.521 17.094 17.094Q16.521 17.667 15.688 17.667ZM4.312 15.688H15.688Q15.688 15.688 15.688 15.688Q15.688 15.688 15.688 15.688V4.312Q15.688 4.312 15.688 4.312Q15.688 4.312 15.688 4.312H4.312Q4.312 4.312 4.312 4.312Q4.312 4.312 4.312 4.312V15.688Q4.312 15.688 4.312 15.688Q4.312 15.688 4.312 15.688ZM4.312 15.688Q4.312 15.688 4.312 15.688Q4.312 15.688 4.312 15.688V4.312Q4.312 4.312 4.312 4.312Q4.312 4.312 4.312 4.312Q4.312 4.312 4.312 4.312Q4.312 4.312 4.312 4.312V15.688Q4.312 15.688 4.312 15.688Q4.312 15.688 4.312 15.688Z"/></svg>
